X:3
T:Le Cinvat
S:Jean-Francois Belanger
R:seven-eight
M:7/8
L:1/8
K:Am
cBA E2E2 | cBA F2F2 | dcB GBde | fed eaec |
cBA E2E2 | cBA F2F2 | dcB GBde | fec A2A2 ::
aga f2f2 | agf ecea | fed B^GBd | dcB c2c2 |
aga f2f2 | agf ecea | fed B^GBd | dcB A2A2 :|
